X:300
T:Kitty's Rambles
R:jig
H:Similar to #246
D:Mary Bergin: Feado/ga Sta/in 2
D:Laurence Nugent: Traditional Irish Music on Flute and Tin-whistle
Z:id:hn-jig-311
M:6/8
K:Dmix
FDD c2A|d^cd e2g|fed cAG|FAF GFE|
FDD c2A|d^cd e2g|fed cAG|1 Ad^c dAG:|2 Ad^c d2A||
|:dfa dfa|dfa afd|ceg ceg|ceg gfe|
~f3 gfg|~a3 efg|fed cAG|1 Ad^c d2A:|2 Ad^c de/f/g||
|:afd d^cd|Adf agf|gec cBc|Gce gfe|
fef gfg|~a3 efg|fed cAG|1 Ad^c de/f/g:|2 Ad^c dAG||
